X:3915
T:Norsk Schottis
M:4/4
O:Norway
R:Schottis
Z:Richard Robinson 
%%TUNEURL: http://www.leeds.ac.uk/music/Info/RRTuneBk/gettune/00000c1a.html
%%ID:00000c1a
K:D min
d2A2 B2G2 |A>GFG A4|1G>F EG F>EDF|E2A2=B2^c2 :|2 G>F EG F>EDF|E2^c2d3 e ::
f2ef a2f2| e^ce^c e3 e  |1 f2df e2^ce| d>e f<d A3 e :|2 ^f2df e2^ce | d2 d2 d4:|
